assets/img/desktop.svg

<svg xmlns="http://www.w3.org/2000/svg" xmlns:xlink="http://www.w3.org/1999/xlink" id="desktop-Layer_1" xml:space="preserve" height="120" viewBox="0 0 120 120" width="120" version="1.1" y="0px" x="0px" enable-background="new 0 0 120 120"><path id="desktop-stand" d="m74.6 101.2c-2.5-2.6-2.6-8.2-2.6-8.2h-23.4s-0.1 5.6-2.6 8.2-6.5 4.8 0.4 4.8h13.5 0.9 13.5c6.8 0 2.8-2.3 0.3-4.8z" fill="#B2B2B2"/><path id="desktop-shadow" opacity=".5" d="m72.5 97c-0.5-2-0.5-4-0.5-4h-23.4s0 2-0.5 4h24.4z" enable-background="new    " fill="#7C7C7C"/><path id="desktop-back-bt" d="m2 88c0 1.9 2.3 5 4.2 5h107.6c1.9 0 3.2-3.1 3.2-5v-6h-115v6z" fill="#B2B2B2"/><path id="desktop-back-black" d="m113.8 15h-107.6c-1.9 0-4.2-0.4-4.2 1.5v65.5h115v-65.5c0-1.9-1.3-1.5-3.2-1.5z" fill="#231F20"/><path id="desktop-screen_1_" d="m8 18h103v59h-103v-59z" fill="#D3D3D3"/><path id="desktop-logo" d="m66 43.2l-13-4.1c-0.6-0.6-1-1.9-1-3.4 0-1.4 0.7-2.7 1.3-3.4l6.4-3.8 6.3 3.8v10.9zm-19-7.2v14.8l3.5 2.1v-12.2c-0.6-0.7-1-2-1-3.4 0-1.5 0.5-2.7 1.1-3.4l-3.6 2.1zm6.3 7.8v10.8l6.4 3.8 6.399-3.8c1.199-0.7 1.199-1.9 1.199-3.4s-0.298-2.7-0.898-3.4l-13.1-4zm15.7-10v12.3c0.6 0.7 1.2 2 1.2 3.4 0 1.5-0.4 2.7-1 3.4l3.899-2.1v-14.8l-4.099-2.2z" fill="#FF302C"/><path id="desktop-text" d="m37.2 64.3v2.2h-0.5v-4.9h0.5v2.1h1.2v-2.2h0.5v4.9h-0.5v-2.2l-1.2 0.1zm4.4-1.5v0.1h-0.5v-0.2c0-0.5-0.2-0.7-0.6-0.7s-0.6 0.2-0.6 0.7c0 1.1 1.6 1.2 1.6 2.6 0 0.8-0.3 1.2-1.1 1.2s-1.1-0.5-1.1-1.2v-0.3h0.5v0.3c0 0.5 0.2 0.7 0.6 0.7s0.6-0.2 0.6-0.7c0-1.1-1.6-1.2-1.6-2.6 0-0.8 0.3-1.2 1.1-1.2 0.8 0.1 1.1 0.6 1.1 1.3zm1.6 1h1.3v0.5h-1.3v-0.5zm4-2.2c0.8 0 1.1 0.5 1.1 1.2v2.4c0 0.8-0.3 1.2-1.1 1.2h-1.2v-4.9h1.2v0.1zm0 4.4c0.4 0 0.6-0.2 0.6-0.7v-2.5c0-0.5-0.2-0.7-0.6-0.7h-0.6v3.9h0.6zm3.4-2.2v0.5h-1.2v1.7h1.5v0.5h-2v-4.9h2v0.5h-1.5v1.6h1.2v0.1zm1.2-2.2l0.8 4.2 0.8-4.2h0.5l-0.9 4.9h-0.8l-0.9-4.9h0.5zm4.2 2.2v0.5h-1.2v1.7h1.4v0.5h-2v-4.9h2v0.5h-1.4v1.6h1.2v0.1zm0.8 2.7v-4.9h0.5v4.4h1.4v0.5h-1.9zm2.3-3.7c0-0.8 0.3-1.2 1.1-1.2s1.1 0.5 1.1 1.2v2.5c0 0.8-0.3 1.2-1.1 1.2s-1.1-0.5-1.1-1.2v-2.5zm0.5 2.6c0 0.5 0.2 0.699 0.6 0.699 0.399 0 0.6-0.199 0.6-0.699v-2.6c0-0.5-0.2-0.7-0.6-0.7s-0.6 0.301-0.6 0.7v2.6zm3.3-3.8c0.8 0 1.1 0.5 1.1 1.2v0.6c0 0.8-0.3 1.199-1.2 1.199h-0.5v1.899h-0.5v-4.898h1.1zm-0.1 2.5c0.4 0 0.601-0.199 0.601-0.6v-0.6c0-0.5-0.199-0.7-0.601-0.7h-0.5v2h0.5v-0.1zm3.9-2c-0.4 0-0.601 0.2-0.601 0.7v0.2c0 0.4 0.199 0.6 0.601 0.6h0.5v-0.5h0.5v0.5h0.2v0.5h-0.2v1.7c0 0.2 0 0.4 0.1 0.601h-0.5c-0.1-0.101-0.1-0.199-0.1-0.399-0.101 0.3-0.4 0.5-0.8 0.5-0.602 0-0.9-0.399-0.9-1.101v-0.401c0-0.5 0.2-0.9 0.6-1-0.398-0.1-0.6-0.5-0.6-1v-0.1c0-0.801 0.3-1.2 1.2-1.2h0.8v0.5h-0.8v-0.1zm0 2.1c-0.4 0-0.601 0.3-0.601 0.8v0.5c0 0.4 0.199 0.7 0.601 0.7 0.3 0 0.5-0.2 0.5-0.601v-1.301l-0.5-0.098zm3.9-2.6c0.801 0 1.102 0.5 1.102 1.2v2.4c0 0.8-0.301 1.2-1.102 1.2h-1.2v-4.9h1.2v0.1zm0 4.4c0.4 0 0.602-0.2 0.602-0.7v-2.5c0-0.5-0.2-0.7-0.602-0.7h-0.6v3.9h0.6zm3.3-2.2v0.5h-1.2v1.7h1.4v0.5h-2v-4.9h2v0.5h-1.4v1.6h1.2v0.1zm2.9-1v0.1h-0.5v-0.2c0-0.5-0.2-0.7-0.6-0.7s-0.601 0.2-0.601 0.7c0 1.1 1.601 1.2 1.601 2.6 0 0.8-0.3 1.2-1.101 1.2s-1.101-0.5-1.101-1.2v-0.3h0.602v0.3c0 0.5 0.199 0.7 0.601 0.7 0.399 0 0.6-0.2 0.6-0.7 0-1.1-1.6-1.2-1.6-2.6 0-0.8 0.3-1.2 1.1-1.2 0.599 0.1 0.999 0.6 0.999 1.3zm1-1.2v4.9h-0.5v-4.9h0.5zm2.7 1.2v0.4h-0.5v-0.5c0-0.5-0.2-0.7-0.6-0.7s-0.6 0.3-0.6 0.7v2.6c0 0.5 0.2 0.7 0.601 0.7 0.399 0 0.601-0.3 0.601-0.7v-0.9h-0.5v-0.5h1v1.5c0 0.8-0.3 1.199-1.101 1.199s-1.101-0.499-1.101-1.199v-2.5c0-0.801 0.3-1.2 1.101-1.2 0.799-0.1 1.099 0.4 1.099 1.1zm1 3.7h-0.5v-4.9h0.7l1.1 3.5v-3.5h0.5v4.9h-0.6l-1.2-3.9v3.9z" fill="#FF302C"/><linearGradient id="desktop-screen-reflection_2_" y2="47.5" gradientUnits="userSpaceOnUse" x2="111" y1="47.5" x1="55.6">	<stop stop-color="#fff" stop-opacity="0" offset="0"/>	<stop stop-color="#fff" offset="1"/></linearGradient><path id="desktop-screen-reflection" opacity=".6" d="m55.6 77h55.4v-59h-20.1l-35.3 59z" enable-background="new    " fill="url(#desktop-screen-reflection_2_)"/></svg>

<?xml version="1.0" encoding="utf-8"?>
<!-- Generator: Adobe Illustrator 16.0.0, SVG Export Plug-In . SVG Version: 6.00 Build 0)  -->
<!DOCTYPE svg PUBLIC "-//W3C//DTD SVG 1.1//EN" "http://www.w3.org/Graphics/SVG/1.1/DTD/svg11.dtd">
<svg version="1.1" id="desktop" xmlns="http://www.w3.org/2000/svg" xmlns:xlink="http://www.w3.org/1999/xlink" x="0px" y="0px"
	 width="120px" height="120px" viewBox="0 0 120 120" enable-background="new 0 0 120 120" xml:space="preserve">
<path id="stand" fill="none" stroke="#FF302C" stroke-width="0.25" stroke-miterlimit="10" d="M48.6,93c0,0-0.1,5.6-2.6,8.2
	c-2.5,2.6-6.5,4.8,0.4,4.8h13.5h0.9h13.5c6.8,0,2.8-2.3,0.3-4.8C72.1,98.6,72,93,72,93H48.6z"/>
<path id="back" fill="none" stroke="#FF302C" stroke-width="0.25" stroke-miterlimit="10" d="M113.8,15H6.2C4.3,15,2,14.6,2,16.5V82
	v6c0,1.9,2.3,5,4.2,5h42.4H72h41.8c1.9,0,3.2-3.1,3.2-5v-6V16.5C117,14.6,115.7,15,113.8,15z"/>
<rect id="screen" x="8" y="18" fill="none" stroke="#FF302C" stroke-width="0.25" stroke-miterlimit="10" width="103" height="59"/>
<path id="logo" fill="none" stroke="#FF302C" stroke-width="0.25" stroke-miterlimit="10" d="M66,43.2l-13-4.1c-0.6-0.6-1-1.9-1-3.4
	c0-1.4,0.7-2.7,1.3-3.4l6.4-3.8l6.3,3.8V43.2z M47,36v14.8l3.5,2.1V40.7c-0.6-0.7-1-2-1-3.4c0-1.5,0.5-2.7,1.1-3.4L47,36z
	 M53.3,43.8v10.8l6.4,3.8l6.399-3.8c1.196-0.7,1.196-1.9,1.196-3.4S67,48.5,66.4,47.8L53.3,43.8L53.3,43.8z M69,33.8v12.3
	c0.6,0.7,1.2,2,1.2,3.4c0,1.5-0.4,2.7-1,3.4l3.899-2.1V36L69,33.8z"/>
<path id="text" fill="none" stroke="#FF302C" stroke-width="0.25" stroke-miterlimit="10" d="M37.2,64.3v2.2h-0.5v-4.9h0.5V63.7h1.2
	v-2.2h0.5v4.9h-0.5v-2.2L37.2,64.3z M41.6,62.8V62.9h-0.5v-0.2c0-0.5-0.2-0.7-0.6-0.7s-0.6,0.2-0.6,0.7c0,1.1,1.6,1.2,1.6,2.6
	c0,0.8-0.3,1.2-1.1,1.2c-0.8,0-1.1-0.5-1.1-1.2V65h0.5v0.3c0,0.5,0.2,0.7,0.6,0.7s0.6-0.2,0.6-0.7c0-1.1-1.6-1.2-1.6-2.6
	c0-0.8,0.3-1.2,1.1-1.2C41.3,61.6,41.6,62.1,41.6,62.8z M43.2,63.8h1.3v0.5h-1.3V63.8z M47.2,61.6c0.8,0,1.1,0.5,1.1,1.2v2.4
	c0,0.8-0.3,1.2-1.1,1.2H46v-4.9h1.2V61.6z M47.2,66c0.4,0,0.6-0.2,0.6-0.7v-2.5c0-0.5-0.2-0.7-0.6-0.7h-0.6V66H47.2z M50.6,63.8v0.5
	h-1.2V66h1.5v0.5h-2v-4.9h2v0.5h-1.5V63.7h1.2V63.8z M51.8,61.6l0.8,4.2l0.8-4.2h0.5L53,66.5h-0.8l-0.9-4.9H51.8z M56,63.8v0.5h-1.2
	V66h1.4v0.5h-2v-4.9h2v0.5h-1.4V63.7H56V63.8z M56.8,66.5v-4.9h0.5V66h1.4v0.5H56.8z M59.1,62.8c0-0.8,0.3-1.2,1.1-1.2
	c0.8,0,1.1,0.5,1.1,1.2v2.5c0,0.8-0.3,1.2-1.1,1.2c-0.8,0-1.1-0.5-1.1-1.2V62.8z M59.6,65.4c0,0.5,0.2,0.699,0.6,0.699
	c0.399,0,0.6-0.199,0.6-0.699V62.8c0-0.5-0.2-0.7-0.6-0.7c-0.4,0-0.6,0.301-0.6,0.7V65.4z M62.9,61.6c0.8,0,1.1,0.5,1.1,1.2V63.4
	c0,0.8-0.3,1.199-1.2,1.199h-0.5v1.896h-0.5V61.6H62.9z M62.8,64.1c0.4,0,0.601-0.199,0.601-0.6v-0.6c0-0.5-0.196-0.7-0.601-0.7
	h-0.5v2h0.5V64.1L62.8,64.1z M66.7,62.1c-0.4,0-0.601,0.2-0.601,0.7V63c0,0.4,0.196,0.6,0.601,0.6h0.5v-0.5h0.5v0.5h0.2v0.5h-0.2
	v1.7c0,0.2,0,0.4,0.1,0.601h-0.5c-0.1-0.101-0.1-0.196-0.1-0.396c-0.101,0.301-0.4,0.5-0.8,0.5c-0.604,0-0.9-0.396-0.9-1.104V65
	c0-0.5,0.2-0.9,0.6-1c-0.396-0.1-0.6-0.5-0.6-1v-0.1c0-0.801,0.3-1.2,1.2-1.2h0.8v0.5h-0.8V62.1L66.7,62.1z M66.7,64.2
	c-0.4,0-0.601,0.3-0.601,0.8v0.5c0,0.4,0.196,0.7,0.601,0.7c0.3,0,0.5-0.2,0.5-0.601v-1.304L66.7,64.2z M70.6,61.6
	c0.801,0,1.104,0.5,1.104,1.2v2.4c0,0.8-0.304,1.2-1.104,1.2H69.4v-4.9H70.6V61.6z M70.6,66c0.4,0,0.604-0.2,0.604-0.7v-2.5
	c0-0.5-0.2-0.7-0.604-0.7H70V66H70.6z M73.9,63.8v0.5h-1.2V66H74.1v0.5h-2v-4.9h2v0.5H72.7V63.7h1.2V63.8z M76.8,62.8V62.9h-0.5
	v-0.2c0-0.5-0.2-0.7-0.6-0.7c-0.4,0-0.601,0.2-0.601,0.7c0,1.1,1.601,1.2,1.601,2.6c0,0.8-0.3,1.2-1.101,1.2
	c-0.804,0-1.104-0.5-1.104-1.2V65H75.1v0.3c0,0.5,0.199,0.7,0.604,0.7c0.396,0,0.6-0.2,0.6-0.7c0-1.1-1.6-1.2-1.6-2.6
	c0-0.8,0.3-1.2,1.1-1.2C76.4,61.6,76.8,62.1,76.8,62.8z M77.8,61.6v4.9h-0.5v-4.9H77.8z M80.5,62.8v0.4H80v-0.5
	c0-0.5-0.2-0.7-0.6-0.7C79,62,78.8,62.3,78.8,62.7v2.6c0,0.5,0.2,0.7,0.601,0.7c0.399,0,0.604-0.3,0.604-0.7V64.4h-0.5v-0.5h1v1.5
	c0,0.8-0.3,1.199-1.104,1.199C78.6,66.6,78.3,66.1,78.3,65.4v-2.5c0-0.801,0.3-1.2,1.101-1.2C80.2,61.6,80.5,62.1,80.5,62.8z
	 M81.5,66.5H81v-4.9h0.7l1.1,3.5v-3.5h0.5v4.9h-0.6l-1.2-3.9V66.5z"/>
</svg>
